www/static/icons/javascript.svg

<svg width="50" height="50" viewBox="0 0 50 50" fill="none" xmlns="http://www.w3.org/2000/svg">
<rect width="50" height="50" rx="6" fill="#FBF7E7"/>
<path d="M44 6H6V44H44V6Z" fill="#F7DF1E"/>
<path d="M31.5263 35.6876C32.2917 36.9374 33.2875 37.856 35.0488 37.856C36.5284 37.856 37.4736 37.1166 37.4736 36.0948C37.4736 34.8703 36.5025 34.4366 34.8739 33.7243L33.9812 33.3413C31.4044 32.2435 29.6926 30.8683 29.6926 27.961C29.6926 25.2829 31.7331 23.2441 34.9221 23.2441C37.1925 23.2441 38.8247 24.0343 40.0009 26.1032L37.2202 27.8886C36.608 26.7908 35.9475 26.3583 34.9221 26.3583C33.8762 26.3583 33.2133 27.0218 33.2133 27.8886C33.2133 28.9598 33.8768 29.3935 35.4089 30.057L36.3016 30.4394C39.3356 31.7405 41.0486 33.0668 41.0486 36.0489C41.0486 39.2639 38.5231 41.0251 35.1314 41.0251C31.8152 41.0251 29.6727 39.4448 28.6244 37.3735L31.5263 35.6876ZM18.9121 35.9971C19.473 36.9923 19.9833 37.8337 21.2102 37.8337C22.3833 37.8337 23.1234 37.3747 23.1234 35.5899V23.448H26.6942V35.6382C26.6942 39.3356 24.5264 41.0185 21.3622 41.0185C18.5031 41.0185 16.8474 39.5389 16.0054 37.7568L18.9121 35.9971Z" fill="black"/>
</svg>

<svg width="50" height="50" fill="none" xmlns="http://www.w3.org/2000/svg"><rect width="50" height="50" rx="6" fill="#FBF7E7"/><path d="M44 6H6v38h38V6z" fill="#F7DF1E"/><path d="M31.526 35.688c.766 1.25 1.762 2.168 3.523 2.168 1.48 0 2.425-.74 2.425-1.761 0-1.225-.971-1.658-2.6-2.37l-.893-.384c-2.577-1.098-4.288-2.473-4.288-5.38 0-2.678 2.04-4.717 5.23-4.717 2.27 0 3.902.79 5.078 2.86l-2.78 1.785c-.613-1.098-1.273-1.53-2.299-1.53-1.046 0-1.709.663-1.709 1.53 0 1.07.664 1.505 2.196 2.168l.893.382c3.034 1.302 4.747 2.628 4.747 5.61 0 3.215-2.526 4.976-5.918 4.976-3.316 0-5.458-1.58-6.507-3.651l2.902-1.686zm-12.614.31c.561.994 1.071 1.836 2.298 1.836 1.173 0 1.913-.46 1.913-2.244V23.448h3.571v12.19c0 3.698-2.168 5.38-5.332 5.38-2.859 0-4.515-1.48-5.357-3.261l2.907-1.76z" fill="#000"/></svg>
